svg/fluentui-system-icons/ic_fluent_slide_text_person_24_filled.svg

<svg width="24" height="24" viewBox="0 0 24 24" fill="none" xmlns="http://www.w3.org/2000/svg">
<path d="M4.75 4C3.23122 4 2 5.23122 2 6.75V17.25C2 18.7688 3.23122 20 4.75 20H13.002C13.0007 19.9583 13 19.9167 13 19.875V19.772C13 18.2401 14.2419 17 15.7727 17H16.0505C15.4022 16.3647 15 15.4793 15 14.5C15 13.7564 15.2319 13.0669 15.6273 12.5H6.75C6.33579 12.5 6 12.1642 6 11.75C6 11.3358 6.33579 11 6.75 11H15.75C16.1246 11 16.4351 11.2747 16.491 11.6336C17.0596 11.2344 17.7524 11 18.5 11C20.2632 11 21.7219 12.3039 21.9646 14H22V6.75C22 5.23122 20.7688 4 19.25 4H4.75ZM6 8.75C6 8.33579 6.33579 8 6.75 8H11.25C11.6642 8 12 8.33579 12 8.75C12 9.16421 11.6642 9.5 11.25 9.5H6.75C6.33579 9.5 6 9.16421 6 8.75ZM6.75 15.5C6.33579 15.5 6 15.1642 6 14.75C6 14.3358 6.33579 14 6.75 14H13.25C13.6642 14 14 14.3358 14 14.75C14 15.1642 13.6642 15.5 13.25 15.5H6.75ZM21 14.5C21 15.8807 19.8807 17 18.5 17C17.1193 17 16 15.8807 16 14.5C16 13.1193 17.1193 12 18.5 12C19.8807 12 21 13.1193 21 14.5ZM23 19.875C23 21.4315 21.7143 23 18.5 23C15.2857 23 14 21.4374 14 19.875V19.772C14 18.7929 14.7937 18 15.7727 18H21.2273C22.2063 18 23 18.793 23 19.772V19.875Z" fill="#212121"/>
</svg>

<svg xmlns="http://www.w3.org/2000/svg" width="24" height="24"><path d="M4.75 4A2.75 2.75 0 0 0 2 6.75v10.5A2.75 2.75 0 0 0 4.75 20h8.252a4.008 4.008 0 0 1-.002-.125v-.103A2.772 2.772 0 0 1 15.773 17h.277A3.49 3.49 0 0 1 15 14.5c0-.744.232-1.433.627-2H6.75a.75.75 0 0 1 0-1.5h9a.75.75 0 0 1 .741.634A3.501 3.501 0 0 1 21.965 14H22V6.75A2.75 2.75 0 0 0 19.25 4H4.75ZM6 8.75A.75.75 0 0 1 6.75 8h4.5a.75.75 0 0 1 0 1.5h-4.5A.75.75 0 0 1 6 8.75Zm.75 6.75a.75.75 0 0 1 0-1.5h6.5a.75.75 0 0 1 0 1.5h-6.5Zm14.25-1a2.5 2.5 0 1 1-5 0 2.5 2.5 0 0 1 5 0Zm2 5.375C23 21.431 21.714 23 18.5 23S14 21.437 14 19.875v-.103c0-.98.794-1.772 1.773-1.772h5.454c.98 0 1.773.793 1.773 1.772v.103Z"/></svg>
